src/hbcore/resources/themes/icons/hbdefault/scalable/qtg_mono_automatic.svg

<?xml version="1.0" encoding="UTF-8" standalone="no"?>
<!DOCTYPE svg PUBLIC "-//W3C//DTD SVG 1.1 Tiny//EN" "http://www.w3.org/Graphics/SVG/1.1/DTD/svg11-tiny.dtd">
<svg xmlns="http://www.w3.org/2000/svg" xmlns:xlink="http://www.w3.org/1999/xlink" baseProfile="tiny" height="30px" version="1.1" viewBox="0 0 30 30" width="30px" x="0px" y="0px">
<g fill-opacity="0.5" stroke-opacity="0.5">
<rect fill="none" height="30" width="30"/>
</g>
<path d="M17.28,20.82h2.273l-3.21-11.64h-2.532l-3.359,11.65h1.953l0.688-2.563h3.524l0.67,2.55zm-3.89-3.87l1.469-5.789,1.431,5.789h-2.899z"/>
<path d="M1,3v24h28v-24h-28zm25,21h-22v-18h22v18z"/>
</svg>

<?xml version="1.0" encoding="UTF-8"?>
<!DOCTYPE svg PUBLIC "-//W3C//DTD SVG 1.1 Tiny//EN" "http://www.w3.org/Graphics/SVG/1.1/DTD/svg11-tiny.dtd">
<svg baseProfile="tiny" height="30px" version="1.1" viewBox="0 0 30 30" width="30px" x="0px" xmlns="http://www.w3.org/2000/svg" xmlns:xlink="http://www.w3.org/1999/xlink" y="0px">
<g fill-opacity="0.5" stroke-opacity="0.5">
<rect fill="none" height="30" width="30"/>
</g>
<path d="M17.282,20.824h2.273L16.337,9.176h-2.532l-3.359,11.648h1.953l0.688-2.563h3.524L17.282,20.824z M13.391,16.949  l1.469-5.789l1.431,5.789H13.391z"/>
<path d="M1,3v24h28V3H1z M26.001,24H4V6h22V24z"/>
</svg>
